X:1
T:Title
%%score { ( 1 3 ) | 2 }
L:1/8
M:4/4
K:G
V:1 treble nm="Grand Piano"
V:3 treble 
V:2 bass 
V:1
 z4 z2[Q:1/4=110] D2 | G2 G2 B3 [G,DG] | [G,DF]2 [G,CE]4 [CEG]2 | %3
 [A,DF]2 [A,FA]2 [A,EG]3[K:bass] [G,^CE] |[M:3/4] [F,D]6 |[M:1/4] [F,D]2 | %6
[M:4/4][K:treble] [G,DG]2 [DB]2 [DA]3 [DG] | [CE]2 [EA]4 [EG]2 | F2 c2 B3 A |[M:3/4] [B,G]6 | %10
[M:1/4] [DB]2 |[M:4/4] [^DB]2 [DF]2 [FA]3 [EG] | [EG]2 [^DF]4 [FA]2 | G2 E2 [^DB]3 [DB] | %14
[M:3/4] [^DB]6 |[M:1/4] [B,FA]2 |[M:4/4] [B,EG]2 [B,EG]2 [DFA]3 [DAc] | [DAc]2 [DGB]4 [CFA]2 | %18
 [B,G]2 [EGc]2 [DGB]3 [CFA] |[M:3/4] [B,G]6 |[M:1/4] [DGB]2 |[M:4/4] [Gd]8 | %22
 [EA]2 [EG]2 [CE]2 [B,D]2 | [DG]3 [DG] A2 A2 |[M:3/4] B2 d2 [Fd]2 |[M:1/4] [Fd]2 |[M:4/4] [Gd]8 | %27
[M:9/8] [EA]2 [EG]- [EG] [CE]2 [Ec]3 |[M:4/4] B3 A G2 F2 |[M:3/4] [B,DG]6 |] %30
V:2
 z4 z2 [G,B,]2 | [G,B,D]2 [G,B,D]2 [G,D]3 B,, | C,2 C,4 C,2 | D,2 D,2 A,,3 A,, |[M:3/4] D,6 | %5
[M:1/4] C,2 |[M:4/4] B,,2 [G,,G,]2 [A,,F,]3 [B,,G,] | [C,G,]2 [C,C]4 [^C,A,]2 | %8
 [D,A,D]2 [D,A,D]2 [D,F,D]3 [D,F,C] |[M:3/4] [G,,G,]6 |[M:1/4] [G,,G,]2 | %11
[M:4/4] [B,,F,]2 [B,,B,]2 [B,,B,]3 [B,,B,] | [B,,B,]2 [B,,B,]4 [B,,B,]2 | %13
 [E,B,E]2 [E,G,]2 [B,,F,]3 [B,,F,] |[M:3/4] [B,,F,]6 |[M:1/4] ^D,2 |[M:4/4] E,2 E,2 D,3 D, | %17
 G,2 G,4 D,2 | E,2 C,2 D,3 D, |[M:3/4] G,,6 |[M:1/4] G,2 |[M:4/4] [G,B,]2 G,2 G,3 [G,D] | %22
 [C,G,]2 [C,G,]2 [G,,G,]2 [G,,G,]2 | [B,,G,]3 [B,,G,] [D,F,D]2 [D,F,D]2 | %24
[M:3/4][K:treble] [G,D]2 [G,B,G]2[K:bass] [D,A,]2 |[M:1/4] [D,A,]2 |[M:4/4] [G,B,]2 G,2 G,3 [G,D] | %27
[M:9/8] [C,C]2 [C,C]- [C,C] [C,G,]2 [C,G,]3 |[M:4/4] [D,G,D]3 [D,CD] [D,B,D]2 [D,A,D]2 | %29
[M:3/4] G,,6 |] %30
V:3
 x8 | x8 | x8 | x7[K:bass] x |[M:3/4] x6 |[M:1/4] x2 |[M:4/4][K:treble] x8 | x8 | x8 |[M:3/4] x6 | %10
[M:1/4] x2 |[M:4/4] x8 | x8 | x8 |[M:3/4] x6 |[M:1/4] x2 |[M:4/4] x8 | x8 | x8 |[M:3/4] x6 | %20
[M:1/4] x2 |[M:4/4] z2 B,2 B,3 B | x8 | x8 |[M:3/4] x6 |[M:1/4] x2 |[M:4/4] z2 B,2 B,3 B | %27
[M:9/8] x9 |[M:4/4] x8 |[M:3/4] x6 |] %30

